icon/bts/fullscreen-exit.svg

<svg xmlns="http://www.w3.org/2000/svg" width="32" height="32" fill="none" stroke="currentcolor" stroke-linecap="round" stroke-linejoin="round" stroke-width="2"><path d="M4 12h8V4m8 0v8h8M4 20h8v8m16-8h-8v8"/></svg>

<svg id="i-fullscreen-exit" xmlns="http://www.w3.org/2000/svg" viewBox="0 0 32 32" fill="none" stroke="currentcolor" stroke-linecap="round" stroke-linejoin="round" stroke-width="2" height="1em" width="1em">
  <path d="M4 12 L12 12 12 4 M20 4 L20 12 28 12 M4 20 L12 20 12 28 M28 20 L20 20 20 28"/>
</svg>
